img/favicon.svg

<svg xmlns="http://www.w3.org/2000/svg" viewBox="0 0 640 640"><path d="M352 528H128c-8.8 0-16-7.2-16-16V288c0-8.8 7.2-16 16-16h48v-48h-48c-35.3 0-64 28.7-64 64v224c0 35.3 28.7 64 64 64h224c35.3 0 64-28.7 64-64v-48h-48v48c0 8.8-7.2 16-16 16m-64-160c-8.8 0-16-7.2-16-16V128c0-8.8 7.2-16 16-16h224c8.8 0 16 7.2 16 16v224c0 8.8-7.2 16-16 16zm-64-16c0 35.3 28.7 64 64 64h224c35.3 0 64-28.7 64-64V128c0-35.3-28.7-64-64-64H288c-35.3 0-64 28.7-64 64z"/></svg>

<svg xmlns="http://www.w3.org/2000/svg" viewBox="0 0 640 640"><!--!Font Awesome Free 7.1.0 by @fontawesome - https://fontawesome.com License - https://fontawesome.com/license/free Copyright 2025 Fonticons, Inc.--><path d="M352 528L128 528C119.2 528 112 520.8 112 512L112 288C112 279.2 119.2 272 128 272L176 272L176 224L128 224C92.7 224 64 252.7 64 288L64 512C64 547.3 92.7 576 128 576L352 576C387.3 576 416 547.3 416 512L416 464L368 464L368 512C368 520.8 360.8 528 352 528zM288 368C279.2 368 272 360.8 272 352L272 128C272 119.2 279.2 112 288 112L512 112C520.8 112 528 119.2 528 128L528 352C528 360.8 520.8 368 512 368L288 368zM224 352C224 387.3 252.7 416 288 416L512 416C547.3 416 576 387.3 576 352L576 128C576 92.7 547.3 64 512 64L288 64C252.7 64 224 92.7 224 128L224 352z"/></svg>
